X: 1772
T: The One After George Davis Mudgee Schottische
B: australian traditional tunes wiki
M:4/4
L:1/8
R: Schottische
Q: 1/4=100
K:D
V:1 
A,>D|:"D"F>F A,>F "G"G>G F>G|"D"BA-A2 D>F A>d|"A7"c>d E2E>G (3BcB|\\
"D"A>F A,2A,D|\\
"D"F>F A,>F "G"G>G F>G|
"D"BA-A2D>F A>d|"A7"c>d E2E>B A>B|1\\
(3cBA"D"d2d2d2 A,>D:|2\\
(3cBA"D"d2d2d2A>d||
|:"D"f>d "A7"e>c "D"d>d c>d|ed-d2F2F>B|"A7"A2E2E2-E>B|"D"A2F2F2-F>A|
"D"f>d "A7"e>c "D"d>d c>d|ed-d2F2F>B|"A7"A2E2E>C E>F|1"D"D2"A7"E2"D"D2F>A:|2"D"D2"A7"E2"D"D2z2||
% abcbook-tune_id 6342d53adc39c5b00895dc23


% abcbook-boost 0
% abcbook-tablature 
% abcbook-transpose 
% abcbook-lastupdated 1665324382854
% abcbook-soundfonts 
% abcbook-repeats 1
% NFF Book 2019
% Bush Traditions recording played by David Gittus & Julie Gittus

